**kern	**kern	**dynam
*part1	*part1	*part1
*staff2	*staff1	*
*I"Piano	*	*
*clefF4	*clefG2	*
*k[b-e-a-]	*k[b-e-a-]	*
=1	=1	=1
*	*^	*
4G 4f	4dd	4bn	.
8G 8f	8dd	8b	<
=	=	=	=
4G 4d	(8ffL	4bn	.
.	8dd)	.	[
8D 8d	8aa-J	8cc	>
=	=	=	=
4G 4f	4dd	4bn	.
8G 8f	8gg	8dd	] mf
=	=	=	=
4G 4en	4gg	8ddL	.
.	.	8cc	.
8G 8e-X	8gg	8gJ 8cc	.
=	=	=	=
4G 4d	(8ggL	4a- 4cc	.
.	8ff)	.	.
8G 8e-	8ccJ	8g 8cc	.
*	*v	*v	*
=	=	=
*^	*	*
(4.An	[4.G	((4.f#X 4.ee-	>
=	=	=	=
(4.Bn	4.G]	((4.fn)) 4.dd	.
=	=	=	=
8c)	8C)	8e-)) 8cc	] p
*	*	*^	*
8r	8ryy	8r	8ryy	.
8r	8ryy	8r	8ryy	.
*	*	*v	*v	*
=	=	=	=
4.G	(8E-L	(8cL 8g	mf
.	8D	8f 8bn	.
.	8CJ)	8e-J) 8cc	.
*v	*v	*	*
=	=	=
*-	*-	*-
!!!system-decoration: {(s1,s2)}
